X:1
T:City of Gold
T:City of Gold
T:William Howard Doane
T:Frances Jane (Fanny) Crosby, 1875
T:Public Domain Courtesy of the Cyber Hymnal™
T:Public Domain Courtesy of the Cyber Hymnal™
C:William Howard Doane
Z:Public Domain
Z:Courtesy of the Cyber Hymnal™
%%score ( 1 2 ) ( 3 4 )
L:1/8
Q:1/4=105
M:4/4
K:Ab
V:1 treble 
V:2 treble 
V:3 bass 
V:4 bass 
V:1
 [CE]>[CA] | [Ec]2 [Ec]>[=D=B] [Ec]2 [CA][E_B] | [DA]2 [DA][DF] [CE]2 [CE][=B,=D] | %3
w: 1.~There’s a|ci- ty that looks o’er the|val- ley of death, And the|
w: 2.~There the|King, our Re- deem- er, the|Lord whom we love, All the|
w: 3.~Ev- ery|soul we have led to the|foot of the cross, Ev- ery|
 [CE]2 [EA][EG] [EA]2 [Ed][Ec] | [EB]6 E>[EA] | [Ec]2 [Ec][D=B] [Ec]2 [CA][E_B] | %6
w: glo- ries can nev- er be|told; There the|sun nev- er sets, and the|
w: faith- ful with rap- ture be-|hold; There the|right- eous for- ev- er shall|
w: lamb we have brought to the|fold, Shall be|kept as bright jew- els our|
 [DA]2 [DA][DF] [CE]2 [CE][CE] | [DF][EG] ([EA][FB]) [Ec] !fermata![Ec]2 [DB] | [CA]6 || %9
w: leaves nev- er fade, In that|beau- ti- ful * ci- ty of|gold.|
w: shine as the stars, In that|beau- ti- ful * ci- ty of|gold.|
w: crown to a- dorn, In that|beau- ti- ful * ci- ty of|gold.|
"^Refrain" E>[EA] | c6 [Ec]>[EB] | A6 [EG]>[FA] | B6 [Ed]>[Ec] | [EB]6 E>[EA] | %14
w: There the|sun nev- er|sets, and the|leaves nev- er|fade; And the|
w: |||||
w: |||||
 [Ec]2 [Ec][=D=B] [Ec]2 [CA][E_B] | [DA]2 [DA][DF] [CE]2 [CE][CE] | %16
w: eyes of the faith- ful our|Sav- ior be- hold, In that|
w: ||
w: ||
 [DF][EG] ([EA][FB]) [Ec] !fermata![Ec]2 [DB] | [CA]6 |] %18
w: beau- ti- ful * ci- ty of|gold.|
w: ||
w: ||
V:2
 x2 | x8 | x8 | x8 | x6 E3/2 x/ | x8 | x8 | x8 | x6 || E3/2 x/ | (A2 AA A2) x2 | (E2 FF E2) x2 | %12
 (G2 GG G2) x2 | x6 E3/2 x/ | x8 | x8 | x8 | x6 |] %18
V:3
 [A,,A,]>[A,,A,] | [A,,A,]2 [A,,A,]>[A,,E,] [A,,A,]2 [A,,A,][A,,A,] | %2
w: ~ ~|~ ~ ~ ~ ~ ~|
 [D,F,]2 [D,F,][D,A,] [A,,A,]2 [A,,A,][A,,A,] | [A,,A,]2 [C,A,][D,B,] [C,A,]2 [B,,G,][A,,A,] | %4
w: ~ ~ ~ ~ ~ ~|~ ~ ~ ~ ~ ~|
 [E,G,]6 E,>E, | [A,,A,]2 [A,,A,][A,,E,] [A,,A,]2 [A,,A,][A,,A,] | %6
w: ~ ~ ~|~ ~ ~ ~ ~ ~|
 [D,F,]2 [D,F,][D,A,] [A,,A,]2 [A,,A,][A,,A,] | [D,A,][D,B,] A,2 [E,A,] !fermata!E,2 E, | %8
w: ~ ~ ~ ~ ~ ~|~ ~ ~ ~ ~ ~|
 [A,,E,]6 || [A,C]>[A,C] | [A,E]2 [A,E][A,E] [A,E]2 [A,E]>[E,D] | %11
w: ~|~ ~|~ there the sun, ~ ~|
 [A,,C]2 [D,D][D,D] [A,,C]2 [E,B,]>[E,B,] | [E,E]2 [E,E][E,E] [E,E]2 [E,B,]>[E,A,] | %13
w: ~ nev- er sets, ~ ~|~ and the leaves * *|
 [E,G,]6 E,>E, | [A,,A,]2 [A,,A,][A,,E,] [A,,A,]2 [A,,A,][A,,A,] | %15
w: ||
 [D,F,]2 [D,F,][D,A,] [A,,A,]2 [A,,A,][A,,A,] | [D,A,][D,B,] A,2 [E,A,] !fermata!E,2 E, | %17
w: ||
 [A,,E,]6 |] %18
w: |
V:4
 x2 | x8 | x8 | x8 | x6 E,>E, | x8 | x8 | x2 (C,D,) E,2 E, x | x6 || x2 | x8 | x8 | x8 | x6 E,>E, | %14
 x8 | x8 | x2 (C,D,) E,2 E, x | x6 |] %18

